svg/u1f645_1f3fc_200d_2640.svg

<svg viewBox="0 0 128 128" xmlns="http://www.w3.org/2000/svg">
  <g id="hairGroup_1_">
    <path id="hair_10_" d="M64.56,4.1c-41.01,0-40.68,37.92-40.68,38.52c0,24.56,1.88,59.25,11.71,72.9 c3.9,5.41,11.43,5.71,11.43,5.71l16.97-0.03l16.97,0.03c0,0,7.53-0.3,11.43-5.71c9.83-13.65,11.71-48.34,11.71-72.9 C104.1,42.02,105.57,4.1,64.56,4.1z" fill="#AB872F"/>
    <radialGradient id="hairHighlights_3_" cx="63.9933" cy="68.3332" gradientTransform="matrix(1 0 0 -1.1901 0 140.988)" gradientUnits="userSpaceOnUse" r="47.5318">
      <stop offset="0.7936" stop-color="#BFA055" stop-opacity="0"/>
      <stop offset="1" stop-color="#BFA055"/>
    </radialGradient>
    <path id="hairHighlights_2_" d="M64.56,4.1c-41.01,0-40.68,37.92-40.68,38.52 c0,24.56,1.88,59.25,11.71,72.9c3.9,5.41,11.43,5.71,11.43,5.71l16.97-0.03l16.97,0.03c0,0,7.53-0.3,11.43-5.71 c9.83-13.65,11.71-48.34,11.71-72.9C104.1,42.02,105.57,4.1,64.56,4.1z" fill="url(#hairHighlights_3_)"/>
  </g>
  <g id="face">
    <path id="head" d="M64,16.04c-17.2,0-33.13,12.79-33.13,39.91c0,21.79,13.49,34.67,25.23,38.83 c2.8,0.99,5.5,1.49,7.9,1.49c2.38,0,5.07-0.49,7.85-1.47c11.76-4.14,25.28-17.03,25.28-38.84C97.13,28.83,81.2,16.04,64,16.04z" fill="#E0BB95"/>
    <path id="nose" d="M67.81,68.05c-0.1-0.04-0.21-0.07-0.32-0.08H60.5c-0.11,0.01-0.21,0.04-0.32,0.08 c-0.63,0.26-0.98,0.91-0.68,1.61s1.69,2.66,4.49,2.66c2.8,0,4.19-1.96,4.49-2.66C68.79,68.97,68.45,68.31,67.81,68.05z" fill="#C48E6A"/>
    <g id="eyes">
      <ellipse cx="47.75" cy="58.87" fill="#5D4037" rx="4.87" ry="5.04"/>
      <ellipse cx="80.25" cy="58.87" fill="#5D4037" rx="4.87" ry="5.04"/>
    </g>
    <g id="eyebrows">
      <path d="M54.98,49.82c-0.93-1.23-3.07-3.01-7.23-3.01s-6.31,1.79-7.23,3.01c-0.41,0.54-0.31,1.17-0.02,1.55 c0.26,0.35,1.04,0.68,1.9,0.39s2.54-1.16,5.35-1.18c2.81,0.02,4.49,0.89,5.35,1.18s1.64-0.03,1.9-0.39 C55.29,50.99,55.39,50.36,54.98,49.82z" fill="#AB872F"/>
      <path d="M87.48,49.82c-0.93-1.23-3.07-3.01-7.23-3.01s-6.31,1.79-7.23,3.01c-0.41,0.54-0.31,1.17-0.02,1.55 c0.26,0.35,1.04,0.68,1.9,0.39s2.54-1.16,5.35-1.18c2.81,0.02,4.49,0.89,5.35,1.18s1.64-0.03,1.9-0.39 C87.79,50.99,87.89,50.36,87.48,49.82z" fill="#AB872F"/>
    </g>
    <path id="mouth" d="M70.35,83.26c0,3.18-2.84,3.85-6.35,3.85s-6.35-0.73-6.35-3.85c0-3.28,2.84-5.3,6.35-5.3 C67.51,77.96,70.35,79.91,70.35,83.26z" fill="#6D4C41"/>
  </g>
  <g id="hairHighlights_1_">
    <radialGradient id="SVGID_1_" cx="99.6272" cy="45.9494" gradientTransform="matrix(1 0 0 0.4912 -21.0334 59.4798)" gradientUnits="userSpaceOnUse" r="23.419">
      <stop offset="0.7275" stop-color="#BFA055" stop-opacity="0"/>
      <stop offset="1" stop-color="#BFA055"/>
    </radialGradient>
    <path d="M64,95.69v-9.44l28.57-2.26l2.6,3.2c0,0-6.15,8.51-22.23,8.51L64,95.69z" fill="url(#SVGID_1_)"/>
    <radialGradient id="SVGID_2_" cx="76.5619" cy="49.4313" gradientTransform="matrix(-0.9057 0.4238 -0.3144 -0.6719 186.5455 79.3316)" gradientUnits="userSpaceOnUse" r="6.9209">
      <stop offset="0.6628" stop-color="#BFA055"/>
      <stop offset="1" stop-color="#BFA055" stop-opacity="0"/>
    </radialGradient>
    <path d="M95.11,83.06c-4.28-6.5,5.21-8.93,5.21-8.93s0.01,0.01,0.01,0.01 c-1.65,2.05-2.4,3.84-1.43,5.61c1.21,2.21,4.81,2.53,4.81,2.53S98.8,86.64,95.11,83.06z" fill="url(#SVGID_2_)"/>
    <radialGradient id="SVGID_3_" cx="49.45" cy="45.9494" gradientTransform="matrix(-1 0 0 0.4912 98.9001 59.4798)" gradientUnits="userSpaceOnUse" r="23.419">
      <stop offset="0.7275" stop-color="#BFA055" stop-opacity="0"/>
      <stop offset="1" stop-color="#BFA055"/>
    </radialGradient>
    <path d="M64.04,95.69v-9.44l-28.57-2.26l-2.6,3.2c0,0,6.15,8.51,22.23,8.51L64.04,95.69z" fill="url(#SVGID_3_)"/>
    <radialGradient id="SVGID_4_" cx="26.3848" cy="49.4313" gradientTransform="matrix(0.9057 0.4238 0.3144 -0.6719 -13.0539 100.5975)" gradientUnits="userSpaceOnUse" r="6.9209">
      <stop offset="0.6628" stop-color="#BFA055"/>
      <stop offset="1" stop-color="#BFA055" stop-opacity="0"/>
    </radialGradient>
    <path d="M32.94,83.06c4.28-6.5-5.21-8.93-5.21-8.93s-0.01,0.01-0.01,0.01 c1.65,2.05,2.4,3.84,1.43,5.61c-1.21,2.21-4.81,2.53-4.81,2.53S29.24,86.64,32.94,83.06z" fill="url(#SVGID_4_)"/>
  </g>
  <path id="shirt_x5F_back_1_" d="M107.91,123.9c0-17.64-21.88-26.59-43.9-26.56 c-21.88,0.03-43.9,7.88-43.9,26.56C20.11,123.9,107.91,123.9,107.91,123.9z" fill="#651FFF"/>
  <g id="shadow_x5F_shirt_2_" opacity="0.4">
    <linearGradient id="SVGID_5_" gradientTransform="matrix(1 0 0 -1 0 128)" gradientUnits="userSpaceOnUse" x1="64.01" x2="64.01" y1="15.8442" y2="4.57">
      <stop offset="0.2651" stop-color="#212121"/>
      <stop offset="1" stop-color="#212121" stop-opacity="0"/>
    </linearGradient>
    <path d="M107.91,123.42c-1.1-14.08-21.88-24-43.9-23.97c-21.88,0.03-40.67,7.89-43.9,23.97H107.91z" fill="url(#SVGID_5_)"/>
  </g>
  <g id="hairGroup">
    <path id="hair_5_" d="M64.56,4.1c-41.01,0-40.68,37.92-40.68,38.52c0,7.76,0.19,16.53,0.75,25.32l6.72-0.02 c-0.06-2.92,1.99-20.97,8.08-22.34c22.36-5.03,35.01-16.89,35.01-16.89c3.29,7.19,13.58,14.19,17.27,16.86 c3.03,2.19,3.96,18.55,3.9,22.38h7.71c0-0.05,0.02-0.1,0.02-0.16c0.56-8.75,0.74-17.46,0.74-25.17 C104.1,42.02,105.57,4.1,64.56,4.1z" fill="#AB872F"/>
    <radialGradient id="hairHighlights_4_" cx="64.327" cy="64.3087" gradientTransform="matrix(1 0 0 -1.2135 0 141.733)" gradientUnits="userSpaceOnUse" r="49.788">
      <stop offset="0.7945" stop-color="#BFA055" stop-opacity="0"/>
      <stop offset="1" stop-color="#BFA055"/>
    </radialGradient>
    <path id="hairHighlights" d="M64.56,4.1c-41.01,0-40.68,37.92-40.68,38.52 c0,7.76,0.19,16.53,0.75,25.32l6.72-0.02c-0.06-2.92,1.99-20.97,8.08-22.34c22.36-5.03,35.01-16.89,35.01-16.89 c3.29,7.19,13.58,14.19,17.27,16.86c3.03,2.19,3.96,18.55,3.9,22.38h7.71c0-0.05,0.02-0.1,0.02-0.16 c0.56-8.75,0.74-17.46,0.74-25.17C104.1,42.02,105.57,4.1,64.56,4.1z" fill="url(#hairHighlights_4_)"/>
  </g>
  <g id="tone_1_">
    <path d="M21.86,81.94L9.97,76.87c-1.66-0.71-2.43-2.62-1.72-4.28l0.09-0.21c0.71-1.66,2.62-2.43,4.28-1.72 l11.89,5.06C26.17,76.43,23.52,82.64,21.86,81.94z" fill="#BA8F63"/>
  </g>
  <linearGradient id="hand_2_" gradientTransform="matrix(1 0 0 -1 -206.4765 128)" gradientUnits="userSpaceOnUse" x1="210.7503" x2="236.7666" y1="58.5794" y2="58.5794">
    <stop offset="0.5999" stop-color="#E0BB95"/>
    <stop offset="1" stop-color="#CCA47A"/>
  </linearGradient>
  <path id="hand_1_" d="M39.09,76.13c0,0-18.03-11.35-22.44-15.1c-2.61-2.22-5.48-6.03-6.97-7.86 c-1.35-1.66-5.13,0.22-5.36,2.35c-0.14,1.25,0.11,2.78,1.14,4.59c0,0,6.69,15.98,14.71,21.37l10.97,4.82L39.09,76.13z" fill="url(#hand_2_)"/>
  <linearGradient id="shirt_2_" gradientTransform="matrix(1 0 0 -1 0 128)" gradientUnits="userSpaceOnUse" x1="105.7918" x2="62.2918" y1="6.2481" y2="32.0814">
    <stop offset="0" stop-color="#651FFF"/>
    <stop offset="0.7047" stop-color="#5914F2"/>
    <stop offset="1" stop-color="#530EEB"/>
  </linearGradient>
  <path id="shirt_1_" d="M102.3,104.2L36.36,72.97c-0.24-0.11-0.5-0.16-0.75-0.16 c-0.62,0-1.22,0.32-1.56,0.89l-6.49,11.39c-0.49,0.83-0.23,1.9,0.58,2.42l55.15,36.39h32.48C114.78,115.58,109.8,108.19,102.3,104.2 z" fill="url(#shirt_2_)"/>
  <linearGradient id="shirt_x5F_shadow_2_" gradientTransform="matrix(1 0 0 -1 0 128)" gradientUnits="userSpaceOnUse" x1="58.7046" x2="72.2453" y1="43.1359" y2="18.9586">
    <stop offset="0" stop-color="#212121" stop-opacity="0"/>
    <stop offset="0.5036" stop-color="#212121"/>
    <stop offset="1" stop-color="#212121" stop-opacity="0"/>
  </linearGradient>
  <polygon id="shirt_x5F_shadow_1_" fill="url(#shirt_x5F_shadow_2_)" points="91.47,99.18 68.95,114.53 39.7,95.12 60.41,84.37 "/>
  <g id="tone">
    <path d="M106.33,81.94l11.89-5.06c1.66-0.71,2.43-2.62,1.72-4.28l-0.09-0.21c-0.71-1.66-2.62-2.43-4.28-1.72 l-11.89,5.06C102.03,76.43,104.68,82.64,106.33,81.94z" fill="#BA8F63"/>
  </g>
  <linearGradient id="hand_3_" gradientTransform="matrix(-1 0 0 -1 581.8156 128)" gradientUnits="userSpaceOnUse" x1="460.2284" x2="485.6381" y1="58.5794" y2="58.5794">
    <stop offset="0.5999" stop-color="#E0BB95"/>
    <stop offset="1" stop-color="#CCA47A"/>
  </linearGradient>
  <path id="hand" d="M89.11,76.13c0,0,18.03-11.35,22.44-15.1c2.61-2.22,5.48-6.03,6.97-7.86 c1.35-1.66,5.13,0.22,5.36,2.35c0.14,1.25-0.11,2.78-1.14,4.59c0,0-6.69,15.98-14.72,21.37L97.06,86.3L89.11,76.13z" fill="url(#hand_3_)"/>
  <linearGradient id="shirt_3_" gradientTransform="matrix(1 0 0 -1 0 128)" gradientUnits="userSpaceOnUse" x1="19.4473" x2="63.2806" y1="4.7821" y2="30.2821">
    <stop offset="0" stop-color="#651FFF"/>
    <stop offset="0.7047" stop-color="#5914F2"/>
    <stop offset="1" stop-color="#530EEB"/>
  </linearGradient>
  <path id="shirt" d="M100.46,85.09L93.96,73.7c-0.33-0.57-0.93-0.89-1.56-0.89 c-0.25,0-0.51,0.05-0.75,0.16L25.72,104.2c-7.5,3.99-12.48,11.38-13.47,19.7h32.48l55.15-36.4 C100.69,86.98,100.94,85.92,100.46,85.09z" fill="url(#shirt_3_)"/>
</svg>

<svg viewBox="0 0 128 128" xmlns="http://www.w3.org/2000/svg">
  <defs>
    <linearGradient id="hand_2_" gradientTransform="matrix(1 0 0 -1 0 0)" gradientUnits="userSpaceOnUse" x1="4.2738" x2="30.2901" y1="-69.4206" y2="-69.4206">
      <stop offset="0.5999" stop-color="#E0BB95"/>
      <stop offset="1" stop-color="#CCA47A"/>
    </linearGradient>
    <linearGradient id="shirt_2_" gradientTransform="matrix(1 0 0 -1 0 0)" gradientUnits="userSpaceOnUse" x1="105.7918" x2="62.2918" y1="-121.7519" y2="-95.9186">
      <stop offset="0" stop-color="#651FFF"/>
      <stop offset="0.7047" stop-color="#5914F2"/>
      <stop offset="1" stop-color="#530EEB"/>
    </linearGradient>
    <linearGradient id="shirt_x5F_shadow_2_" gradientTransform="matrix(1 0 0 -1 0 0)" gradientUnits="userSpaceOnUse" x1="58.7046" x2="72.2453" y1="-84.8641" y2="-109.0414">
      <stop offset="0" stop-color="#212121" stop-opacity="0"/>
      <stop offset="0.5036" stop-color="#212121"/>
      <stop offset="1" stop-color="#212121" stop-opacity="0"/>
    </linearGradient>
    <linearGradient id="hand_3_" gradientTransform="matrix(-1 0 0 -1 0 0)" gradientUnits="userSpaceOnUse" x1="-121.5872" x2="-96.1775" y1="-69.4206" y2="-69.4206">
      <stop offset="0.5999" stop-color="#E0BB95"/>
      <stop offset="1" stop-color="#CCA47A"/>
    </linearGradient>
    <linearGradient id="shirt_3_" gradientTransform="matrix(1 0 0 -1 0 0)" gradientUnits="userSpaceOnUse" x1="19.4473" x2="63.2806" y1="-123.2179" y2="-97.7179">
      <stop offset="0" stop-color="#651FFF"/>
      <stop offset="0.7047" stop-color="#5914F2"/>
      <stop offset="1" stop-color="#530EEB"/>
    </linearGradient>
    <radialGradient id="SVGID_1_" cx="78.5938" cy="167.040198" gradientTransform="matrix(1 0 0 0.4912 0 0)" gradientUnits="userSpaceOnUse" r="23.419">
      <stop offset="0.7275" stop-color="#BFA055" stop-opacity="0"/>
      <stop offset="1" stop-color="#BFA055"/>
    </radialGradient>
    <radialGradient id="SVGID_2_" cx="-58.785132" cy="-154.0092" gradientTransform="matrix(-0.9057 0.4238 -0.3144 -0.6719 0 0)" gradientUnits="userSpaceOnUse" r="6.9209">
      <stop offset="0.6628" stop-color="#BFA055"/>
      <stop offset="1" stop-color="#BFA055" stop-opacity="0"/>
    </radialGradient>
    <radialGradient id="SVGID_3_" cx="-49.4501" cy="167.040198" gradientTransform="matrix(-1 0 0 0.4912 0 0)" gradientUnits="userSpaceOnUse" r="23.419">
      <stop offset="0.7275" stop-color="#BFA055" stop-opacity="0"/>
      <stop offset="1" stop-color="#BFA055"/>
    </radialGradient>
    <radialGradient id="SVGID_4_" cx="57.19833" cy="-80.854049" gradientTransform="matrix(0.9057 0.4238 0.3144 -0.6719 0 0)" gradientUnits="userSpaceOnUse" r="6.9209">
      <stop offset="0.6628" stop-color="#BFA055"/>
      <stop offset="1" stop-color="#BFA055" stop-opacity="0"/>
    </radialGradient>
    <linearGradient id="SVGID_5_" gradientTransform="matrix(1 0 0 -1 0 0)" gradientUnits="userSpaceOnUse" x1="64.01" x2="64.01" y1="-112.1558" y2="-123.43">
      <stop offset="0.2651" stop-color="#212121"/>
      <stop offset="1" stop-color="#212121" stop-opacity="0"/>
    </linearGradient>
    <radialGradient id="hairHighlights_3_" cx="63.9933" cy="-50.134156" gradientTransform="matrix(1 0 0 -1.1901 0 0)" gradientUnits="userSpaceOnUse" r="47.5318">
      <stop offset="0.7936" stop-color="#BFA055" stop-opacity="0"/>
      <stop offset="1" stop-color="#BFA055"/>
    </radialGradient>
    <radialGradient id="hairHighlights_4_" cx="64.327" cy="-52.488169" gradientTransform="matrix(1 0 0 -1.2135 0 0)" gradientUnits="userSpaceOnUse" r="49.788">
      <stop offset="0.7945" stop-color="#BFA055" stop-opacity="0"/>
      <stop offset="1" stop-color="#BFA055"/>
    </radialGradient>
  </defs>
  <path id="hair_10_" d="M64.56,4.1 C23.55,4.1 23.88,42.02 23.88,42.62 C23.88,67.18 25.76,101.87 35.59,115.52 C39.49,120.93 47.02,121.23 47.02,121.23 L63.99,121.2 L80.96,121.23 C80.96,121.23 88.49,120.93 92.39,115.52 C102.22,101.87 104.1,67.18 104.1,42.62 C104.1,42.02 105.57,4.1 64.56,4.1 Z" fill="#AB872F"/>
  <path id="hairHighlights_2_" d="M64.56,4.1 C23.55,4.1 23.88,42.02 23.88,42.62 C23.88,67.18 25.76,101.87 35.59,115.52 C39.49,120.93 47.02,121.23 47.02,121.23 L63.99,121.2 L80.96,121.23 C80.96,121.23 88.49,120.93 92.39,115.52 C102.22,101.87 104.1,67.18 104.1,42.62 C104.1,42.02 105.57,4.1 64.56,4.1 Z" fill="url(#hairHighlights_3_)"/>
  <path id="head" d="M64,16.04 C46.8,16.04 30.87,28.83 30.87,55.95 C30.87,77.74 44.36,90.62 56.1,94.78 C58.9,95.77 61.6,96.27 64,96.27 C66.38,96.27 69.07,95.78 71.85,94.8 C83.61,90.66 97.13,77.77 97.13,55.96 C97.13,28.83 81.2,16.04 64,16.04 Z" fill="#E0BB95"/>
  <path id="nose" d="M67.81,68.05 C67.71,68.01 67.6,67.98 67.49,67.97 L60.5,67.97 C60.39,67.98 60.29,68.01 60.18,68.05 C59.55,68.31 59.2,68.96 59.5,69.66 C59.8,70.36 61.19,72.32 63.99,72.32 C66.79,72.32 68.18,70.36 68.48,69.66 C68.79,68.97 68.45,68.31 67.81,68.05 Z" fill="#C48E6A"/>
  <path d="M52.62,58.87 A4.87 5.04 0 1 1 42.88,58.87 A4.87 5.04 0 1 1 52.62,58.87 Z" fill="#5D4037"/>
  <path d="M85.12,58.87 A4.87 5.04 0 1 1 75.38,58.87 A4.87 5.04 0 1 1 85.12,58.87 Z" fill="#5D4037"/>
  <path d="M54.98,49.82 C54.05,48.59 51.91,46.81 47.75,46.81 C43.59,46.81 41.44,48.6 40.52,49.82 C40.11,50.36 40.21,50.99 40.5,51.37 C40.76,51.72 41.54,52.05 42.4,51.76 C43.26,51.47 44.94,50.6 47.75,50.58 C50.56,50.6 52.24,51.47 53.1,51.76 C53.96,52.05 54.74,51.73 55,51.37 C55.29,50.99 55.39,50.36 54.98,49.82 Z" fill="#AB872F"/>
  <path d="M87.48,49.82 C86.55,48.59 84.41,46.81 80.25,46.81 C76.09,46.81 73.94,48.6 73.02,49.82 C72.61,50.36 72.71,50.99 73,51.37 C73.26,51.72 74.04,52.05 74.9,51.76 C75.76,51.47 77.44,50.6 80.25,50.58 C83.06,50.6 84.74,51.47 85.6,51.76 C86.46,52.05 87.24,51.73 87.5,51.37 C87.79,50.99 87.89,50.36 87.48,49.82 Z" fill="#AB872F"/>
  <path id="mouth" d="M70.35,83.26 C70.35,86.44 67.51,87.11 64,87.11 C60.49,87.11 57.65,86.38 57.65,83.26 C57.65,79.98 60.49,77.96 64,77.96 C67.51,77.96 70.35,79.91 70.35,83.26 Z" fill="#6D4C41"/>
  <path d="M64,95.69 L64,86.25 L92.57,83.99 L95.17,87.19 C95.17,87.19 89.02,95.7 72.94,95.7 L64,95.69 Z" fill="url(#SVGID_1_)"/>
  <path d="M95.11,83.06 C90.83,76.56 100.32,74.13 100.32,74.13 C100.32,74.13 100.33,74.14 100.33,74.14 C98.68,76.19 97.93,77.98 98.9,79.75 C100.11,81.96 103.71,82.28 103.71,82.28 C103.71,82.28 98.8,86.64 95.11,83.06 Z" fill="url(#SVGID_2_)"/>
  <path d="M64.04,95.69 L64.04,86.25 L35.47,83.99 L32.87,87.19 C32.87,87.19 39.02,95.7 55.1,95.7 L64.04,95.69 Z" fill="url(#SVGID_3_)"/>
  <path d="M32.94,83.06 C37.22,76.56 27.73,74.13 27.73,74.13 C27.73,74.13 27.72,74.14 27.72,74.14 C29.37,76.19 30.12,77.98 29.15,79.75 C27.94,81.96 24.34,82.28 24.34,82.28 C24.34,82.28 29.24,86.64 32.94,83.06 Z" fill="url(#SVGID_4_)"/>
  <path id="shirt_x5F_back_1_" d="M107.91,123.9 C107.91,106.26 86.03,97.31 64.01,97.34 C42.13,97.37 20.11,105.22 20.11,123.9 C20.11,123.9 107.91,123.9 107.91,123.9 Z" fill="#651FFF"/>
  <path d="M107.91,123.42 C106.81,109.34 86.03,99.42 64.01,99.45 C42.13,99.48 23.34,107.34 20.11,123.42 L107.91,123.42 Z" fill="url(#SVGID_5_)" opacity="0.4"/>
  <path id="hair_5_" d="M64.56,4.1 C23.55,4.1 23.88,42.02 23.88,42.62 C23.88,50.38 24.07,59.15 24.63,67.94 L31.35,67.92 C31.29,65 33.34,46.95 39.43,45.58 C61.79,40.55 74.44,28.69 74.44,28.69 C77.73,35.88 88.02,42.88 91.71,45.55 C94.74,47.74 95.67,64.1 95.61,67.93 L103.32,67.93 C103.32,67.88 103.34,67.83 103.34,67.77 C103.9,59.02 104.08,50.31 104.08,42.6 C104.1,42.02 105.57,4.1 64.56,4.1 Z" fill="#AB872F"/>
  <path id="hairHighlights" d="M64.56,4.1 C23.55,4.1 23.88,42.02 23.88,42.62 C23.88,50.38 24.07,59.15 24.63,67.94 L31.35,67.92 C31.29,65 33.34,46.95 39.43,45.58 C61.79,40.55 74.44,28.69 74.44,28.69 C77.73,35.88 88.02,42.88 91.71,45.55 C94.74,47.74 95.67,64.1 95.61,67.93 L103.32,67.93 C103.32,67.88 103.34,67.83 103.34,67.77 C103.9,59.02 104.08,50.31 104.08,42.6 C104.1,42.02 105.57,4.1 64.56,4.1 Z" fill="url(#hairHighlights_4_)"/>
  <path d="M21.86,81.94 L9.97,76.87 C8.31,76.16 7.54,74.25 8.25,72.59 L8.34,72.38 C9.05,70.72 10.96,69.95 12.62,70.66 L24.51,75.72 C26.17,76.43 23.52,82.64 21.86,81.94 Z" fill="#BA8F63"/>
  <path id="hand_1_" d="M39.09,76.13 C39.09,76.13 21.06,64.78 16.65,61.03 C14.04,58.81 11.17,55 9.68,53.17 C8.33,51.51 4.55,53.39 4.32,55.52 C4.18,56.77 4.43,58.3 5.46,60.11 C5.46,60.11 12.15,76.09 20.17,81.48 L31.14,86.3 L39.09,76.13 Z" fill="url(#hand_2_)"/>
  <path id="shirt_1_" d="M102.3,104.2 L36.36,72.97 C36.12,72.86 35.86,72.81 35.61,72.81 C34.99,72.81 34.39,73.13 34.05,73.7 L27.56,85.09 C27.07,85.92 27.33,86.99 28.14,87.51 L83.29,123.9 L115.77,123.9 C114.78,115.58 109.8,108.19 102.3,104.2 Z" fill="url(#shirt_2_)"/>
  <path id="shirt_x5F_shadow_1_" d="M91.47,99.18 L68.95,114.53 L39.7,95.12 L60.41,84.37 Z" fill="url(#shirt_x5F_shadow_2_)"/>
  <path d="M106.33,81.94 L118.22,76.88 C119.88,76.17 120.65,74.26 119.94,72.6 L119.85,72.39 C119.14,70.73 117.23,69.96 115.57,70.67 L103.68,75.73 C102.03,76.43 104.68,82.64 106.33,81.94 Z" fill="#BA8F63"/>
  <path id="hand" d="M89.11,76.13 C89.11,76.13 107.14,64.78 111.55,61.03 C114.16,58.81 117.03,55 118.52,53.17 C119.87,51.51 123.65,53.39 123.88,55.52 C124.02,56.77 123.77,58.3 122.74,60.11 C122.74,60.11 116.05,76.09 108.02,81.48 L97.06,86.3 L89.11,76.13 Z" fill="url(#hand_3_)"/>
  <path id="shirt" d="M100.46,85.09 L93.96,73.7 C93.63,73.13 93.03,72.81 92.4,72.81 C92.15,72.81 91.89,72.86 91.65,72.97 L25.72,104.2 C18.22,108.19 13.24,115.58 12.25,123.9 L44.73,123.9 L99.88,87.5 C100.69,86.98 100.94,85.92 100.46,85.09 Z" fill="url(#shirt_3_)"/>
</svg>
